<?xml version="1.0" encoding="UTF-8"?>
<map version="1.10" tiledversion="1.11.2" orientation="orthogonal" renderorder="right-down" width="20" height="12" tilewidth="8" tileheight="16" infinite="0" nextlayerid="2" nextobjectid="1">
 <tileset firstgid="1" name="palace_walls" tilewidth="8" tileheight="16" tilecount="20" columns="20">
  <image source="../gfx/tiles/palace_walls.png" width="160" height="16"/>
 </tileset>
 <tileset firstgid="21" name="palace_tile" tilewidth="8" tileheight="16" tilecount="15" columns="15">
  <image source="../gfx/tiles/palace_tile.png" width="120" height="16"/>
 </tileset>
 <tileset firstgid="36" name="palace_bridge" tilewidth="8" tileheight="16" tilecount="20" columns="20">
  <image source="../gfx/tiles/palace_bridge.png" width="160" height="16"/>
 </tileset>
 <layer id="1" name="Tile Layer 1" width="20" height="12">
  <data encoding="csv">
49,40,40,40,40,40,40,40,40,40,40,40,40,40,40,40,40,40,52,44,
51,40,40,40,40,40,40,40,40,40,40,40,40,40,40,40,40,40,50,49,
51,40,40,40,40,40,40,40,40,40,40,40,40,40,40,40,40,40,50,49,
51,40,40,40,40,40,40,40,40,40,40,40,40,40,40,40,40,40,50,49,
51,40,40,40,40,40,40,40,40,40,40,40,40,40,40,40,40,40,50,49,
51,39,39,39,39,39,39,39,39,39,39,39,39,39,39,39,39,39,50,49,
23,23,23,23,23,23,23,23,23,23,23,23,23,23,23,23,23,23,23,23,
21,21,21,21,21,21,21,21,21,21,21,21,21,21,21,21,21,21,21,21,
51,37,38,37,38,37,38,37,38,37,38,37,38,37,38,37,38,37,50,49,
51,40,40,40,40,40,40,40,40,40,40,40,40,40,40,40,40,40,50,49,
51,44,44,44,44,44,40,40,40,40,40,40,40,44,44,44,44,44,50,49,
51,44,44,44,44,44,44,44,44,44,44,44,44,44,44,44,44,44,50,49
</data>
 </layer>
</map>
